X: 30332
T: LIZZY'S WALTZ
C:
%R: waltz
B: Elias Howe "The Musician's Companion" Part 3 1844 p.33 #2
S: http://imslp.org/wiki/The_Musician's_Companion_(Howe,_Elias)
S: https://archive.org/stream/firstthirdpartof03howe/#page/66/mode/1up
Z: 2016 John Chambers <jc:trillian.mit.edu>
M: 3/4
L: 1/8
K: C
% - - - - - - - - - - - - - - - - - - - - - - - - -
G2 |\
cBcdef | ag(eGeG) | gf(cGdG) | fe(cGcG) |\
cBcdef | ag(eGeG) | gfdGdG | c4 :|
|: G2 |\
cBcdef | (egc'gec) | BdgfdB | cdecG2 |\
cBcdef | (egc'gec) | BdgfdB | c4 :|
% - - - - - - - - - - - - - - - - - - - - - - - - -


